Flat-Remix-Dark/apps/scalable/nasc.svg

<svg xmlns="http://www.w3.org/2000/svg" xmlns:xlink="http://www.w3.org/1999/xlink" width="384pt" height="384pt" version="1.1" viewBox="0 0 384 384">
 <defs>
  <filter id="alpha" width="100%" height="100%" x="0%" y="0%" filterUnits="objectBoundingBox">
   <feColorMatrix in="SourceGraphic" type="matrix" values="0 0 0 0 1 0 0 0 0 1 0 0 0 0 1 0 0 0 1 0"/>
  </filter>
  <mask id="mask1">
   <g filter="url(#alpha)">
    <rect width="384" height="384" x="0" y="0" style="fill:rgb(0%,0%,0%);fill-opacity:0.2"/>
   </g>
  </mask>
  <clipPath id="clip2">
   <rect width="384" height="384" x="0" y="0"/>
  </clipPath>
  <g id="surface8" clip-path="url(#clip2)">
   <path style="fill:rgb(0%,0%,0%)" d="M 72.003906 114 L 72.003906 130.800781 L 72.070312 138 L 108 198 L 72 258 L 72 282 L 204 282 L 204 246 L 180 246 L 180 258 L 96 258 L 132 198 L 96 138 L 168 138 L 168 150 L 192 150 L 192 114 Z M 72.003906 114"/>
  </g>
 </defs>
 <g>
  <path style="fill:#ffffff" d="M 360 342 L 360 42 C 360 32.058594 351.941406 24 342 24 L 42 24 C 32.058594 24 24 32.058594 24 42 L 24 342 C 24 351.941406 32.058594 360 42 360 L 342 360 C 351.941406 360 360 351.941406 360 342 Z M 360 342"/>
  <use mask="url(#mask1)" xlink:href="#surface8"/>
  <path style="fill:rgb(99.215%,28.627%,28.627%)" d="M 72.003906 108 L 72.003906 124.800781 L 72.070312 132 L 108 192 L 72 252 L 72 276 L 204 276 L 204 240 L 180 240 L 180 252 L 96 252 L 132 192 L 96 132 L 168 132 L 168 144 L 192 144 L 192 108 Z M 72.003906 108"/>
  <path style="fill:#eaeaea" d="M 246 24 L 270 24 L 270 360 L 246 360 Z M 246 24"/>
 </g>
 <path style="fill:#050000;opacity:0.3" d="M 32 446 L 32 456 C 32 469.25521 42.744787 480 56 480 L 456 480 C 469.25521 480 480 469.25521 480 456 L 480 446 C 480.00001 459.25521 469.25521 470 456 470 L 56 470 C 42.744787 470 32 459.25521 32 446 z" transform="scale(0.75)"/>
 <path style="opacity:0.1" d="M 56 32 C 42.744787 32 32 42.744787 32 56 L 32 66 C 32 52.7448 42.7448 42 56 42 L 456 42 C 469.25521 42 480 52.7448 480 66 L 480 56 C 480 42.744787 469.25521 32 456 32 L 56 32 z" transform="scale(0.75)"/>
</svg>

<svg width="512" height="512" version="1.1" viewBox="0 0 384 384" xmlns="http://www.w3.org/2000/svg"><defs><clipPath id="c"><rect width="384" height="384"/></clipPath></defs><path d="m42 24c-11.968 0-21.75 9.5685-21.75 21.275v293.45c0 11.707 9.7821 21.275 21.75 21.275h300c11.968 0 21.75-9.5685 21.75-21.275v-293.45c0-11.707-9.7821-21.275-21.75-21.275zm0 7.3362h300c7.9149 0 14.25 6.1968 14.25 13.939v293.45c0 7.7421-6.3351 13.939-14.25 13.939h-300c-7.9149 0-14.25-6.1968-14.25-13.939v-293.45c0-7.7421 6.3351-13.939 14.25-13.939z" color="#000000" color-rendering="auto" dominant-baseline="auto" image-rendering="auto" opacity=".2" shape-rendering="auto" solid-color="#000000" style="font-feature-settings:normal;font-variant-alternates:normal;font-variant-caps:normal;font-variant-ligatures:normal;font-variant-numeric:normal;font-variant-position:normal;isolation:auto;mix-blend-mode:normal;shape-padding:0;text-decoration-color:#000000;text-decoration-line:none;text-decoration-style:solid;text-indent:0;text-orientation:mixed;text-transform:none;white-space:normal"/><path d="m360 342v-300c0-9.9414-8.0586-18-18-18h-300c-9.9414 0-18 8.0586-18 18v300c0 9.9414 8.0586 18 18 18h300c9.9414 0 18-8.0586 18-18z" fill="#fff"/><path d="m72.004 115.5v16.801l0.0664 7.1992 35.93 60-36 60v24h132v-36h-24v12h-84l36-60-36-60h72v12h24v-36z" opacity=".3"/><path d="m72.004 108v16.801l0.066406 7.1992 35.93 60-36 60v24h132v-36h-24v12h-84l36-60-36-60h72v12h24v-36z" fill="#fc4848"/><path d="m246 24h24v336h-24z" fill="#eaeaea"/><path transform="scale(.75)" d="m32 446v10c0 13.255 10.745 24 24 24h400c13.255 0 24-10.745 24-24v-10c1e-5 13.255-10.745 24-24 24h-400c-13.255 0-24-10.745-24-24z" fill="#050000" opacity=".3"/><path transform="scale(.75)" d="m56 32c-13.255 0-24 10.745-24 24v10c0-13.255 10.745-24 24-24h400c13.255 0 24 10.745 24 24v-10c0-13.255-10.745-24-24-24h-400z" opacity=".1"/></svg>
